source/manual/Azure Monitor_COLOR.svg

<svg aria-hidden="true" role="presentation">
<svg id="svg-monitor"> <path fill="#FFFFFF" d="M22.83,4.37c-5.706,0.602-10.609,3.448-13.953,7.579c-3.345,4.134-5.106,9.52-4.508,15.227 	  c0.604,5.703,3.449,10.604,7.581,13.949c4.134,3.346,9.52,5.109,15.222,4.509c5.705-0.601,10.606-3.451,13.955-7.581 	  c3.34-4.132,5.106-9.519,4.505-15.225c-0.608-5.751-3.528-10.669-7.724-14.064c-3.531-2.859-8.032-4.51-12.856-4.51 	  C24.319,4.254,23.578,4.292,22.83,4.37"></path> <path opacity="0.4" fill="#7FBA00" d="M16.456,19.472l-5.048-4.086 	  c-2.158,3.088-3.137,6.688-2.991,10.232l6.454-0.679C14.871,23.049,15.392,21.151,16.456,19.472"></path> <path opacity="0.8" fill="#7FBA00" d="M30.575,16.279l4.087-5.049c-3.09-2.156-6.693-3.13-10.238-2.982 	  l0.679,6.453C26.994,14.699,28.894,15.217,30.575,16.279"></path> <path opacity="0.6" fill="#7FBA00" d="M22.853,14.956l-0.68-6.46c-3.49,0.623-6.795,2.35-9.348,5.123 	  l5.044,4.084C19.274,16.294,21.012,15.371,22.853,14.956"></path> <path opacity="0.25" fill="#7FBA00" d="M15.121,27.189l-6.46,0.682c0.62,3.492,2.345,6.801,5.121,9.357 	  l4.083-5.044C16.455,30.775,15.534,29.034,15.121,27.189"></path> <path fill="#A0A1A2" d="M49.859,22.383C49.131,15.446,45.588,9.5,40.586,5.455c-0.971-0.786-2.018-1.472-3.1-2.1l-1.963,3.777 	  c0.83,0.493,1.636,1.024,2.385,1.632c4.196,3.395,7.116,8.312,7.723,14.063c0.602,5.706-1.165,11.093-4.504,15.226 	  c-3.349,4.131-8.25,6.98-13.955,7.581c-3.82,0.4-7.489-0.277-10.744-1.761l-1.961,3.774c3.976,1.851,8.479,2.708,13.151,2.214 	  c6.862-0.719,12.796-4.164,16.814-9.133C48.453,35.765,50.587,29.241,49.859,22.383"></path> <path fill="#A0A1A2" d="M11.951,41.125C7.818,37.78,4.973,32.879,4.37,27.177c-0.599-5.708,1.162-11.094,4.508-15.228 	  c3.343-4.13,8.246-6.977,13.951-7.578c4.613-0.484,9.016,0.574,12.694,2.76l1.963-3.776c-4.416-2.564-9.661-3.787-15.105-3.214 	  C15.522,0.863,9.588,4.307,5.569,9.272L5.562,9.281c-4.018,4.965-6.144,11.484-5.423,18.338c0.723,6.859,4.164,12.796,9.135,16.815 	  c1.582,1.282,3.335,2.346,5.194,3.212l1.961-3.774C14.826,43.142,13.315,42.229,11.951,41.125"></path> <path opacity="0.2" fill="#FFFFFF" d="M11.951,41.125C7.818,37.78,4.973,32.879,4.37,27.177 	  c-0.599-5.708,1.162-11.094,4.508-15.228c3.343-4.13,8.246-6.977,13.951-7.578c4.613-0.484,9.016,0.574,12.694,2.76l1.963-3.776 	  c-4.416-2.564-9.661-3.787-15.105-3.214C15.522,0.863,9.588,4.307,5.569,9.272L5.562,9.281c-4.018,4.965-6.144,11.484-5.423,18.338 	  c0.723,6.859,4.164,12.796,9.135,16.815c1.582,1.282,3.335,2.346,5.194,3.212l1.961-3.774 	  C14.826,43.142,13.315,42.229,11.951,41.125"></path> <path fill="#7FBA00" d="M36.43,12.647l-4.084,5.045c1.008,1.002,1.759,2.178,2.264,3.437h6.775 	  C40.643,17.958,38.977,14.985,36.43,12.647z"></path> <path fill="#DD5900" d="M23.082,27.041c-1.147-1.136-1.154-2.986-0.018-4.131c0.573-0.578,1.327-0.866,2.079-0.866 	  c0.743,0,1.487,0.248,2.057,0.813c0.007,0.007,0.01-0.008,0.019,0h7.601h6.685l0.621-0.005l0.004,0.005 	  c1.173,0,2.125,0.943,2.133,2.113c0.003,1.178-0.944,2.133-2.121,2.137H27.057c-0.55,0.481-1.235,0.779-1.923,0.779 	  C24.394,27.886,23.652,27.606,23.082,27.041"></path> <path fill="#FF8C00" d="M42.13,22.875l-0.004-0.005l-0.621,0.005H34.82h-7.601c-0.009-0.008-0.012,0.007-0.019,0 	  c-0.57-0.565-1.314-0.813-2.057-0.813c-0.752,0-1.506,0.288-2.079,0.866c-0.564,0.569-0.845,1.312-0.846,2.055h22.044 	  C44.251,23.815,43.301,22.875,42.13,22.875z"></path> </svg>
</svg>

<?xml version="1.0" encoding="UTF-8" standalone="no"?>
<svg
   xmlns:dc="http://purl.org/dc/elements/1.1/"
   xmlns:cc="http://creativecommons.org/ns#"
   xmlns:rdf="http://www.w3.org/1999/02/22-rdf-syntax-ns#"
   xmlns:svg="http://www.w3.org/2000/svg"
   xmlns="http://www.w3.org/2000/svg"
   xmlns:sodipodi="http://sodipodi.sourceforge.net/DTD/sodipodi-0.dtd"
   xmlns:inkscape="http://www.inkscape.org/namespaces/inkscape"
   aria-hidden="true"
   role="presentation"
   version="1.1"
   id="svg25"
   sodipodi:docname="Azure Monitor_COLOR.svg"
   width="49.999908"
   height="49.996754"
   inkscape:version="0.92.2 (5c3e80d, 2017-08-06)">
  <metadata
     id="metadata31">
    <rdf:RDF>
      <cc:Work
         rdf:about="">
        <dc:format>image/svg+xml</dc:format>
        <dc:type
           rdf:resource="http://purl.org/dc/dcmitype/StillImage" />
      </cc:Work>
    </rdf:RDF>
  </metadata>
  <defs
     id="defs29" />
  <sodipodi:namedview
     pagecolor="#ffffff"
     bordercolor="#666666"
     borderopacity="1"
     objecttolerance="10"
     gridtolerance="10"
     guidetolerance="10"
     inkscape:pageopacity="0"
     inkscape:pageshadow="2"
     inkscape:window-width="640"
     inkscape:window-height="480"
     id="namedview27"
     showgrid="false"
     inkscape:zoom="2.36"
     inkscape:cx="49.999948"
     inkscape:cy="-0.0012600065"
     inkscape:window-x="0"
     inkscape:window-y="0"
     inkscape:window-maximized="0"
     inkscape:current-layer="svg25" />
  <svg
     id="svg-monitor"
     version="1.1"
     width="100%"
     height="100%"
     transform="translate(-5.2151327e-5,-0.00198621)">
    <path
       d="m 22.83,4.37 c -5.706,0.602 -10.609,3.448 -13.953,7.579 -3.345,4.134 -5.106,9.52 -4.508,15.227 0.604,5.703 3.449,10.604 7.581,13.949 4.134,3.346 9.52,5.109 15.222,4.509 5.705,-0.601 10.606,-3.451 13.955,-7.581 3.34,-4.132 5.106,-9.519 4.505,-15.225 C 45.024,17.077 42.104,12.159 37.908,8.764 34.377,5.905 29.876,4.254 25.052,4.254 c -0.733,0 -1.474,0.038 -2.222,0.116"
       id="path2"
       inkscape:connector-curvature="0"
       style="fill:#ffffff" />
    <path
       d="M 16.456,19.472 11.408,15.386 C 9.25,18.474 8.271,22.074 8.417,25.618 l 6.454,-0.679 c 0,-1.89 0.521,-3.788 1.585,-5.467"
       id="path4"
       inkscape:connector-curvature="0"
       style="opacity:0.4;fill:#7fba00" />
    <path
       d="M 30.575,16.279 34.662,11.23 C 31.572,9.074 27.969,8.1 24.424,8.248 l 0.679,6.453 c 1.891,-0.002 3.791,0.516 5.472,1.578"
       id="path6"
       inkscape:connector-curvature="0"
       style="opacity:0.8;fill:#7fba00" />
    <path
       d="m 22.853,14.956 -0.68,-6.46 c -3.49,0.623 -6.795,2.35 -9.348,5.123 l 5.044,4.084 c 1.405,-1.409 3.143,-2.332 4.984,-2.747"
       id="path8"
       inkscape:connector-curvature="0"
       style="opacity:0.6;fill:#7fba00" />
    <path
       d="m 15.121,27.189 -6.46,0.682 c 0.62,3.492 2.345,6.801 5.121,9.357 l 4.083,-5.044 c -1.41,-1.409 -2.331,-3.15 -2.744,-4.995"
       id="path10"
       inkscape:connector-curvature="0"
       style="opacity:0.25;fill:#7fba00" />
    <path
       d="M 49.859,22.383 C 49.131,15.446 45.588,9.5 40.586,5.455 39.615,4.669 38.568,3.983 37.486,3.355 l -1.963,3.777 c 0.83,0.493 1.636,1.024 2.385,1.632 4.196,3.395 7.116,8.312 7.723,14.063 0.602,5.706 -1.165,11.093 -4.504,15.226 -3.349,4.131 -8.25,6.98 -13.955,7.581 -3.82,0.4 -7.489,-0.277 -10.744,-1.761 l -1.961,3.774 c 3.976,1.851 8.479,2.708 13.151,2.214 6.862,-0.719 12.796,-4.164 16.814,-9.133 4.021,-4.963 6.155,-11.487 5.427,-18.345"
       id="path12"
       inkscape:connector-curvature="0"
       style="fill:#a0a1a2" />
    <path
       d="M 11.951,41.125 C 7.818,37.78 4.973,32.879 4.37,27.177 3.771,21.469 5.532,16.083 8.878,11.949 12.221,7.819 17.124,4.972 22.829,4.371 27.442,3.887 31.845,4.945 35.523,7.131 L 37.486,3.355 C 33.07,0.791 27.825,-0.432 22.381,0.141 15.522,0.863 9.588,4.307 5.569,9.272 L 5.562,9.281 c -4.018,4.965 -6.144,11.484 -5.423,18.338 0.723,6.859 4.164,12.796 9.135,16.815 1.582,1.282 3.335,2.346 5.194,3.212 l 1.961,-3.774 c -1.603,-0.73 -3.114,-1.643 -4.478,-2.747"
       id="path14"
       inkscape:connector-curvature="0"
       style="fill:#a0a1a2" />
    <path
       d="M 11.951,41.125 C 7.818,37.78 4.973,32.879 4.37,27.177 3.771,21.469 5.532,16.083 8.878,11.949 12.221,7.819 17.124,4.972 22.829,4.371 27.442,3.887 31.845,4.945 35.523,7.131 L 37.486,3.355 C 33.07,0.791 27.825,-0.432 22.381,0.141 15.522,0.863 9.588,4.307 5.569,9.272 L 5.562,9.281 c -4.018,4.965 -6.144,11.484 -5.423,18.338 0.723,6.859 4.164,12.796 9.135,16.815 1.582,1.282 3.335,2.346 5.194,3.212 l 1.961,-3.774 c -1.603,-0.73 -3.114,-1.643 -4.478,-2.747"
       id="path16"
       inkscape:connector-curvature="0"
       style="opacity:0.2;fill:#ffffff" />
    <path
       d="m 36.43,12.647 -4.084,5.045 c 1.008,1.002 1.759,2.178 2.264,3.437 h 6.775 C 40.643,17.958 38.977,14.985 36.43,12.647 Z"
       id="path18"
       inkscape:connector-curvature="0"
       style="fill:#7fba00" />
    <path
       d="m 23.082,27.041 c -1.147,-1.136 -1.154,-2.986 -0.018,-4.131 0.573,-0.578 1.327,-0.866 2.079,-0.866 0.743,0 1.487,0.248 2.057,0.813 0.007,0.007 0.01,-0.008 0.019,0 h 7.601 6.685 l 0.621,-0.005 0.004,0.005 c 1.173,0 2.125,0.943 2.133,2.113 0.003,1.178 -0.944,2.133 -2.121,2.137 H 27.057 c -0.55,0.481 -1.235,0.779 -1.923,0.779 -0.74,0 -1.482,-0.28 -2.052,-0.845"
       id="path20"
       inkscape:connector-curvature="0"
       style="fill:#dd5900" />
    <path
       d="M 42.13,22.875 42.126,22.87 41.505,22.875 H 34.82 27.219 c -0.009,-0.008 -0.012,0.007 -0.019,0 -0.57,-0.565 -1.314,-0.813 -2.057,-0.813 -0.752,0 -1.506,0.288 -2.079,0.866 -0.564,0.569 -0.845,1.312 -0.846,2.055 H 44.262 C 44.251,23.815 43.301,22.875 42.13,22.875 Z"
       id="path22"
       inkscape:connector-curvature="0"
       style="fill:#ff8c00" />
  </svg>
</svg>
